!!!COM: Scriabin, Alexander
!!!OTL@@FR: Mouvement no 3
!!!OTL@@EN: Movement No. 3
!!!OPR@@FR: Sonate no 1
!!!OPR@@EN: Sonata No. 1
!!!OPS: 6
!!!ONM: 3
!!!ODT: 1893
!!!AGN: Sonata movement
**kern	**kern	**dynam
*staff2	*staff1	*staff1/2
*Ipiano	*Ipiano	*
*clefF4	*clefG2	*
*k[b-e-a-d-]	*k[b-e-a-d-]	*
*f:	*f:	*
*M12/8	*M12/8	*
8FFFL 8FF	8r	p
=1	=1	=1
8GGG 8GG	4F< 4c 4f	.
8AAA-J 8AA-	.	.
8FFFL 8FF	8r<	.
8GGG 8GG	4C< 4F< 4c<	.
8AAA-J 8AA-	.	.
8FFFL 8FF	8r<	.
8GGG 8GG	4.D-< 4.F< 4.c<	.
8AAA-J 8AA-	.	.
8FFFL 8FF	.	.
8GGG 8GG	4D-< 4F< 4Bn<	.
8AAA-J 8AA-	.	.
8FFFL 8FF	8r	.
=2	=2	=2
8BBBn 8BBn	4A-< 4f 4a-	.
8CCJ 8C	.	.
8FFFL 8FF	8r	.
8BBB 8BB	4A-< 4f	.
8CCJ 8C	.	.
8FFFL 8FF\	8r	.
8CC 8C	4.G-X< 4.B-X< 4.f	>
8DD-J 8D-	.	)
8FFFL 8FF	.	)
8CC 8C	4G-< 4B-< 4en	]
8DD-J 8D-	.	.
*^	*	*
8FF\L	8ryy	8r	.
!!LO:LB:g=original
=3	=3	=3	=3
8Dn 8dn	4An	4c 4f 4cc	<
8E-J 8e-	.	.	.
8FFL	8ryy	8r	.
8D-X 8d-X	4A-X	4f 4bn 4ff	.
8DnJ 8dn	.	.	.
8FFL	8ryy	8r	.
8C 8c	4F	4B- 4f 4b-X	.
8D-XJ 8d-X	.	.	.
8FFL	8ryy	8r	.
8BBn 8Bn	4F	4f 4an 4ff	.
8CJ 8c	.	.	.
8FFL	8ryy	8r	>
=4	=4	=4	=4
8BBn 8Bn	4F/	4A- 4f 4a-X	.
8CJ 8c	.	.	.
*v	*v	*	*
8BBB-XL 8BB-X	8r	.
8DD- 8D-	4G-X< 4B-< 4g-X	.
8BBB-J 8BB-	.	.
8BBB-L 8BB-	8r	.
8DD- 8D-	4.G-< 4.B-< 4.f	>
8BBB-J 8BB-	.	)
8CCL 8C	.	)
8DD- 8D-	4Gn< 4B-< 4en	]
8CCJ 8C	.	.
8BBB-L 8BB-	8r	.
=5	=5	=5
8CC 8C	4B-< 4f 4b-	.
8DD-J 8D-	.	.
8BBB-L 8BB-	8r	.
8CC 8C	4F< 4B-< 4f	.
8DD-J 8D-	.	.
8BBB-L 8BB-	8r	.
8CC 8C	4.G-X< 4.B-< 4.f	>
8DD-J 8D-	.	)
8BBB-L 8BB-	.	)
8CC 8C	4G-< 4B-< 4en	]
8DD-J 8D-	.	.
8BBB-L 8BB-\	8r	.
!!LO:LB:g=original
=6	=6	=6
8EEn 8En	4d- 4b- 4dd-	<
8FFJ 8F	.	.
8BBB-L 8BB-	8r	.
8EE 8E	4d- 4b-	.
8FFJ 8F	.	.
8BBB-L 8BB-	8r	.
8FF 8F	4.c 4.e-X 4.b-	>
8GG-XJ 8G-X	.	)
8BBB-L 8BB-	.	)
8FF 8F	4c 4e- 4an	]
8GG-J 8G-	.	.
*^	*	*
8BB-L	8ryy	8r	.
=7	=7	=7	=7
8En 8en>	4ryy	4d- 4b- 4dd-	.
8FJ 8f>	.	.	.
8BBnL	8ryy	8r	.
8Gn 8gn>	4d-	4f 4dd- 4ff	.
8A-J 8a->	.	.	>
8CL	8ryy	8r	.
8G 8g>	4c	4f 4cc	.
8A-J 8a->	.	.	.
8D-L	8ryy	8r	.
8G 8g>	4Bn	4f 4bn 4ff	.
8A-J 8a->	.	.	.
8CL	8ryy	8r	.
=8	=8	=8	=8
8G 8g>	4c	4f 4cc	.
8A-J 8a->	.	.	.
*v	*v	*	*
8CCL 8C	8r	.
8DD- 8D-	4B-X 4en 4a-	.
8CCJ 8C	.	.
8CCL 8C	8r	.
8DD- 8D-	4.B- 4.e 4.g	>
8CCJ 8C	.	)
8FFFL 8FF	.	)
8DD- 8D-	4A- 4f	]
8CCJ 8C	.	.
8FFFL 8FF	8r	.
!!LO:LB:g=original
=9	=9	=9
8CC 8C	4G 4B- 4f	.
8DD-J 8D-	.	.
[8D- [8G [8Bn	[8f [8bn [8ff	.
4D-] 4G] 4B]	4f] 4b] 4ff]	.
[8C [8A- [8c	[8f [8cc [8ff	.
8C] 8A-] 8c]	8f] 8cc] 8ff]	.
8r	16ccLL	.
.	16en	.
8r	16f	.
.	16gJJ	.
4r	8a-L	.
.	8c	.
8r	8F<J	.
=10	=10	=10
*	*^	*
*	*	*^	*
16FF\LL	8ryy	8r	4.g	.
16C	.	.	.	.
16D-	[4B-	8B-L	.	.
16En	.	.	.	.
16F	.	[8d-J	.	.
16G-XJJ	.	.	.	.
*	*	*v	*v	*
16GnLL	4.B-] 4.d-]	8fL	.
16A-	.	.	.
16G	.	8e-X	.
16G-X	.	.	.
16Gn	.	8enJ	.
16D-JJ	.	.	.
*	*v	*v	*
16FFLL	4A- 4d- 4f	.
16D-	.	.
16A-	.	.
16D-	.	.
16d-	8r	.
16D-JJ	.	.
16A-LL	4ra	.
16d-J	.	.
8a->J	.	.
8FFFL 8FF	8r	.
!!LO:LB:g=original
=11	=11	=11
8CC 8C	4G 4B- 4f	.
8DD-J 8D-	.	.
[8D- [8G [8Bn	[8f [8bn [8ff	.
4D-] 4G] 4B]	4f] 4b] 4ff]	.
[8C [8A- [8c	[8f [8cc [8ff	.
8C] 8A-] 8c]	8f] 8cc] 8ff]	.
8r	16ccLL	.
.	16en	.
8r	16f	.
.	16gJJ	.
4r	8a-L	.
.	8c	.
8FFF#XL 8FF#X	8A-J	.
=12	=12	=12
8DDn 8Dn	4A- 4c 4a-	.
8EE-J 8E-	.	.
[8FF#X [8E- [8c	[8a- [8cc [8aa-	.
4FF#] 4E-] 4c]	4a-] 4cc] 4aa-]	.
[8GG [8E- [8c	[8g [8cc [8gg	.
4GG] 4E-] 4c]	4g] 4cc] 4gg]	.
[8AAA- [8AA-	[8Dn [8F [8Bn	.
4AAA-] 4AA-]	4.D] 4.F] 4.B]	.
8GGG 8GG	.	.
=13	=13	=13
4.CCC 4.CC	4.C< 4.E-< 4.c	sf
[4.E- [4.A- [4.e-	[4.g [4.cc [4.gg	.
8E-L] 8A-] 8e-]	8gL] 8cc] 8gg]	.
8Dn 8A- 8f#X	8cc 8ff#X 8ccc	.
8AA-J 8D 8c	8f#XJ 8cc 8ff#	.
4.GG 4.E- 4.c	4g 4cc 4gg	.
.	8cc	.
!!LO:LB:g=original
=14	=14	=14
! rinforzando	! rinforzando	!
4.CCC 4.CC	4.C<	sf
!	!	!LO:DY:b=1
[4.AA- [4.E- [4.c	[4.e- [4.g [4.ee-	sfz
8AA-L] 8E-] 8c]	8e-L] 8g] 8ee-]	.
8AA- 8Dn 8c	8dn 8f#X 8ddn	.
8DDnJ 8D	8F#XJ 8c 8f#	.
4EE- 4E-	8GL 8c 8g	.
.	8cJ	.
8r	[8G [8c [8e-	.
=15	=15	=15
! rinforzando	!	!
4.AAAAn 4.AAAn	8G] 8c] 8e-]	sf
.	8gL	.
.	[8ee-J	.
8E- 8G 8c 8g	8ee-L]	.
!	!	!LO:HP:b=2
16GLL	8ddn	<
16Bn	.	(
16c	8ccJ	(
16dnJJ	.	(
8e-	8r	[
*clefG2	*	*
!	!	!LO:HP:b=1
8e-L 8ee-	16ggLL	<
.	16bbn	(
8BnJ 8bn	16ccc	(
.	16dddnJJ	(
8c 8cc	8eee-	[
8r	16gLL	.
.	16bn	.
8r	16cc	.
.	16ddJJ	.
*clefF4	*	*
!!LO:LB:g=original
=16	=16	=16
*	*	*^
! rinforzando	!	!LO:DY:a=2	!
4.DDDn 4.DDn	16ee-LL	sfz	<
.	16g	.	(
.	16cc	.	(
.	16g	.	(
.	16gg	.	(
.	16gJJ	.	(
4.E- 4.G 4.c 4.g	16ccLL	.	(
.	16gg	.	(
.	16cc	.	(
.	16gg	.	(
.	16ccc	.	(
.	16ggJJ	.	(
4r	16gggLL	.	[ sfz
.	16gg	.	>
.	16ccc	.	)
.	16cc	.	)
8r	16ee-	.	)
.	16gJJ	.	)
*^	*	*	*
!	!	!	!LO:HP:b=2	!
4.Dn	8B-XL	16gLL	<	]
.	.	16e-	(	.
.	8An	16f#X	(	.
.	.	[16cJ	(	.
.	8e-J	8cJ] 8f# 8cc	[	.
*	*	*	*v	*v
*v	*v	*	*
=17	=17	=17
! rinforzando	!	!LO:DY:a=2
4.GGG 4.GG	4.G	sfz
!	!	!LO:DY:b=1
[4.B- [4.e- [4.b-	[4.ddn [4.gg [4.dddn	sfz
8B-L] 8e-] 8b-]	8ddL] 8gg] 8ddd]	.
8An 8e- 8cc#X	8gg 8ccc#X 8ggg	.
8E-J 8A 8g	8cc#XJ 8gg 8ccc#	.
4.Dn 4.B- 4.g	4dd 4gg 4ddd	.
.	8gg	.
=18	=18	=18
4.GGG 4.GG	4.G	.
[4.E- [4.B- [4.g	[4.b- [4.ddn [4.bb-	.
8E-L] 8B-] 8g]	8b-L] 8dd] 8bb-]	.
8E- 8An 8g	8an 8cc#X 8aan	.
8AAnJ 8A	8c#XJ 8g 8cc#	.
4BB- 4B-	4dn 4g 4dd	.
8r	8g	.
!!LO:LB:g=original
=19	=19	=19
8r	8r	.
8r	8r	.
*	*^	*
8AA-XL 8A-X	[8f [8b-	[8ddn	p
8BB- 8B-	4f] 4b-]	4.dd_	.
8AA-J 8A-	.	.	.
8GGL 8G	[8e- [8b-	.	.
8BB- 8B-	4.e-] 4.b-]	16%3ddL]	.
8GGJ 8G	.	.	.
.	.	16%3ccnJ 16%3ee-	.
8FFL 8F	.	.	.
8BB- 8B-	4.a-X 4.b-	16%3ddL 16%3ff	.
8FFJ 8F	.	.	.
.	.	16%3ee-J 16%3gg	.
8EE-L 8E-	.	.	.
=20	=20	=20	=20
8BB- 8B-	4b-	4g	.
8EE-J 8E-	.	.	.
8GG-XL 8G-X/	[8e- [8a-	[8cc	.
8AA- 8A-	4e-] 4a-]	4.cc_	.
8GG-J 8G-	.	.	.
8FFL 8F	[8d-X [8a-	.	.
8AA- 8A-	4.d-] 4.a-]	16%3ccL]	.
8FFJ 8F	.	.	.
.	.	16%3b-J 16%3dd-X	.
8EE-L 8E-	.	.	.
8AA- 8A-	4.g-X 4.a-	16%3ccL 16%3ee-	.
8EE-J 8E-	.	.	.
.	.	16%3dd-J 16%3ff	.
8DD-L 8D-	.	.	.
=21	=21	=21	=21
8AA- 8A-	4a-	4f	.
8DD-J 8D-	.	.	.
*	*v	*v	*
8d-L	8r	.
8A-	4Bn 4f 4bn	<
8D-J	.	(
8AA-L	8r	(
8C	4c 4f 4cc	(
8A-J	.	(
8D-L	8r	(
8AA-	4F< 4f	(
8DD-J	.	(
8CCL	8r	[
!!LO:LB:g=original
=22	=22	=22
8D-	4.F< 4.A-<	>
8AA-J	.	)
8CL	.	)
8GGJ	16%3En<L 16%3B-X< 16%3c<	)
8BB-L	.	)
.	16%3D-<J 16%3A-< 16%3d-	)
8FFJ	.	)
*	*^	*
8AA-\L	16%3cL	4.E-X< 4.e-X	)
8EE-J	.	.	)
.	16%3B-J	.	)
8GG-XL	.	.	)
*	*v	*v	*
8GGn	4.En< 4.B- 4.en	)
8CCJ	.	]
8FFFL 8FF	.	p
=23	=23	=23
8GGG 8GG	4F< 4c 4f	.
8AAA-J 8AA-	.	.
8GGGL 8GG	8r<	.
8BBB- 8BB-	4C< 4F< 4c<	.
8AAA-J 8AA-	.	.
8FFFL 8FF	8r<	.
8GGG 8GG	4.D-< 4.F< 4.c<	.
8AAA-J 8AA-	.	.
8GGGL 8GG	.	.
8AAA- 8AA-	4D-< 4F< 4Bn<	.
8GGGJ 8GG	.	.
8FFFL 8FF	8r<	.
=24	=24	=24
8BBBn 8BBn	4A-< 4f 4a-	.
8CCJ 8C	.	.
8BBBL 8BB	8r	.
8DD- 8D-	4A-< 4f	.
8CCJ 8C	.	.
8FFFL 8FF\	8r	.
8CC 8C	4.G-X< 4.B-X< 4.f	.
8DD-J 8D-	.	.
8CCL 8C	.	.
8DD- 8D-	4G-< 4B-< 4en	.
8BBB-XJ 8BB-X	.	.
*^	*	*
8FF\L	8ryy	8r	.
!!LO:LB:g=original
=25	=25	=25	=25
8Dn 8dn	4An	4c 4f 4cc	.
8E-J 8e-	.	.	.
8FFL	8ryy	8r	.
8D-X 8d-X	4A-X	4f 4bn 4ff	.
8DnJ 8dn	.	.	.
8FFL	8ryy	8r	.
8C 8c	4F	4B- 4f 4b-X	.
8D-XJ 8d-X	.	.	.
8FFL	8ryy	8r	.
8BBn 8Bn	4F	4f 4an 4ff	.
8CJ 8c	.	.	.
8FFL	8ryy	8r	.
=26	=26	=26	=26
8BBn 8Bn	4F/	4A- 4f 4a-X	.
8CJ 8c	.	.	.
*v	*v	*	*
8BBB-XL 8BB-X	8r	.
8DD- 8D-	4G-X< 4B-< 4g-X	.
8BBB-J 8BB-	.	.
8BBB-L 8BB-	8r	.
8DD- 8D-	4.G-< 4.B-< 4.f	.
8BBB-J 8BB-	.	.
8CCL 8C	.	.
8DD- 8D-	4Gn< 4B-< 4en	.
8CCJ 8C	.	.
8BBB-L 8BB-	8r	.
=27	=27	=27
8CC 8C	4B-< 4f 4b-	.
8DD-J 8D-	.	.
8CCL 8C	8r	.
8EE- 8E-	4F< 4B-< 4f	.
8DD-J 8D-	.	.
8BBB-L 8BB-	8r	.
8CC 8C	4.G-X< 4.B-< 4.f	>
8DD-J 8D-	.	)
8CCL 8C	.	)
8DD- 8D-	4G-< 4B-< 4en	]
8CCJ 8C	.	.
8BBB-L 8BB-\	8r	.
!!LO:LB:g=original
=28	=28	=28
8EEn 8En	4d- 4b- 4dd-	.
8FFJ 8F	.	.
8EEL 8E\	8r	.
8GG-X 8G-X	4.d- 4.b-	.
8FFJ 8F	.	.
8BBB-L 8BB-\	.	.
8FF 8F	4.c 4.e-X 4.b-	.
8GG-J 8G-	.	.
8FFL 8F\	.	.
8GG- 8G-	4c 4e- 4an	.
8EE-XJ 8E-X	.	.
*^	*	*
8BB-L	8ryy	8r	.
=29	=29	=29	=29
8En 8en>	4ryy	4d- 4b- 4dd-	.
8FJ 8f>	.	.	.
8BBnL	8ryy	8r	.
8Gn 8gn>	4d-	4f 4dd- 4ff	.
8A-J 8a->	.	.	.
8CL	8ryy	8r	.
8G 8g>	4c	4f 4cc	<
8A-J 8a->	.	.	.
8D-L	8ryy	8r	.
8G 8g>	4Bn	4f 4bn 4ff	.
8A-J 8a->	.	.	.
8DnL	8ryy	8r	.
!!LO:LB:g=original
=30	=30	=30	=30
8Bn 8bn>	4f>/	4a- 4ff 4aa-	.
8cJ 8cc>	.	.	.
8E-XL	8ryy	8r	.
8Bn> 8b>	4a->/	4ee- 4aa- 4eee-	.
8c>J 8cc>	.	.	.
8EnL	8ryy	8r	<
8c> 8b-X>	4ryy	4cc 4aa- 4ccc	.
8a->J	.	.	.
8FL	8ryy	8r	.
8B> 8bn>	4f>/	4aa- 4fff 4aaa-	.
8c>J 8cc>	.	.	.
8F#XL	8ryy	8r	.
=31	=31	=31	=31
8dn> 8ddn>	4a->/	4aa- 4ccc 4aaa-	.
8e->J 8ee->	.	.	.
8GL	8ryy	8r	.
8d> 8dd>	4g>/	4gg 4ccc 4ggg	.
8e->J 8ee->	.	.	.
*v	*v	*	*
8GGL 8G/	8r	.
8AA- 8A-	4e- 4cc 4gg	>
8GGJ 8G	.	.
8GGL 8G/	8r	.
8AA- 8A-	4d- 4fn 4bn	.
8GGJ 8G	.	.
8CC 8C	8r	.
=32	=32	=32
8FF#XL 8F#X	[4.e- 4.cc 4.ee-	p
8AA- 8A-	.	.
8GGJ 8G	.	.
4r	8e-] 8cc	.
.	8r	.
8FF#	8F#X	ppp
8FF#L	8F#L	.
8AA-	8A-	.
8GGJ	8GJ	.
4r	4r	.
[8GG	8r	.
!!LO:LB:g=original
=33	=33	=33
4.CC 4.GG] 4.C	[4.E- 4.G 4.e-	p
4r	8E-] 8c	.
.	8r	.
8FF#X	8F#X	pp
8FF#L	8F#L	.
8AA-	8A-	.
8GGJ	8GJ	.
4r	4r	.
[8EE-	8r	.
=34	=34	=34
4AAA- 4EE-] 4AA-	4E- 4A- 4c 4e-	pp
[8AA-	8r	.
4EE- 4AA-] 4E-	4C 4A- 4c	.
[8BBn	8r	.
4FF-X 4BB] 4F-X	4Dn 4A- 4dn	.
[8Bn	8r	.
4F- 4B]	4A- 4d 4a-	.
[8E-	8r	.
=35	=35	=35
4AA- 4E-] 4A-	4c 4a- 4cc	.
[8A-	8r	.
4E- 4A-] 4e-	4c 4a-	.
[8Bn	8r	.
4F-X 4B] 4f-X	4dn 4a- 4ddn	.
[8F-	8r	.
4AA- 4F-] 4B	4a- 4dd 4aa-	.
8c 8e- 8a-	8aa-	.
!!LO:LB:g=original
=36	=36	=36
4AAA- 4AA-	[4.ee-	.
[8c	.	.
*^	*	*
4.E- 4.c]	4.a-	8ee-L]	.
.	.	8ddn	.
.	.	8ee-J	.
4.d-X	8.an	8ffnL	.
.	.	8gg-X	.
.	8.b-X	.	.
.	.	8ggnJ	.
8r	8dd-XL	4bb-	.
8EnL 8d-	8g	.	.
[8FJ [8c	[8a-XJ	8aa-	.
=37	=37	=37	=37
4F] 4c]	4a-]	[4.cc	.
[8A-	8ryy	.	.
4.C 4.A-]	4.f	8ccL]	.
.	.	8bn	.
.	.	8ccJ	.
4.C 4.A-	8.e-	8dd-XL	.
.	.	8ddn	.
.	8.a-	.	.
.	.	8ee-XJ	.
8.D- 8.A- 8.B-	8.a-	8ggL	.
.	.	8ff	.
8.Dn 8.A- 8.Bn	8.a-	.	.
.	.	8ff-XJ	.
*v	*v	*	*
=38	=38	=38
4DDDn 4DDn	[4.a-	.
[8F-X	.	.
4.BBn 4.F-] 4.Bn	8a-L]	.
.	8g	.
.	8a-J	.
4.A- 4.f-X	8b-XL	.
.	8bn	.
.	[8aa-J	.
4B 4bn	8aa-L]	.
.	8gg-X	.
*^	*	*
[8E-	8B	[8a-J 8ff-X	.
!!LO:LB:g=original
=39	=39	=39	=39
*	*	*^	*
4.E-]	8c/L	4.a-]	8.ee-L	.
.	8dn>	.	.	.
.	.	.	8.ccJ	.
.	8e->J	.	.	.
*v	*v	*	*	*
8r	4.f-X	[4.a-	.
8B-XL	.	.	.
8BnJ	.	.	.
4.c	4.e-	8a-L]	.
.	.	8ee-	pp
.	.	8ffnJ	.
*	*v	*v	*
4d-X 4e- 4b-X	8gg-XL	.
.	8ggn	.
8c 8e- 8a-	8aa-J	.
=40	=40	=40
4AAA- 4AA-	[4.ee-	.
[8c	.	.
*^	*	*
4.E- 4.c]	4.a-	8ee-L]	.
.	.	8ddn	.
.	.	8ee-J	.
4.d-X	8.an	8ffL	.
.	.	8gg-X	.
.	8.b-X	.	.
.	.	8ggnJ	.
8r	8dd-XL	4bb-	.
8EnL 8d-	8g	.	.
[8FJ [8c	[8a-XJ	8aa-	.
=41	=41	=41	=41
4F] 4c]	4.a-]	[4.cc	.
[8A-	.	.	.
4.C 4.A-]	4.f	8ccL]	.
.	.	8bn	.
.	.	8ccJ	.
8.FFL	8.r	8dd-XL	.
.	.	8ddn	.
8.DnJ [8.c	8.c	.	.
.	.	8ee-J	.
4.A- 4.c] 4.f	4.cc	8ggL	.
.	.	8ff	.
.	.	8ee-J	.
*v	*v	*	*
!!LO:LB:g=original
=42	=42	=42
4GGG 4GG	[4.a-	.
[8c	.	.
4.E- 4.c] 4.e-	8a-L]	.
.	8f#X	.
.	8gJ	.
4r	8a-L	.
.	8g	.
8r	8bnJ	.
8r	8ccL	.
8F#XL	8a-	.
8GJ	8gJ	.
=43	=43	=43
*^	*	*
*	*^	*	*
4rAAA	4GG	8A-L	4.F#X 4.c 4.f#X	.
.	.	8D-	.	.
8rAAA	8rFF	8DnJ	.	.
4rAAA	8rFF	8E-	4.Fn 4.Bn 4.fn	.
.	8FF#X/L	8D	.	.
8r	8GGJ	8rA	.	.
8r	8AA-/	4rA	[4.F [4.B	.
8DDn\L	8GG/	.	.	.
[8DD-XJ	8r	8rA	.	.
4DD-\]	4.GG/	4rA	4F] 4B]	.
8CC\	.	8rA	[8E- [8c	.
*	*v	*v	*	*
*v	*v	*	*
=44	=44	=44
16%3CC\L	2.E-] 2.c]	.
16%3GGJ	.	.
.	.	.
8E-L	.	.
8c	.	.
8g>J	.	.
8ee->	8ryy	.
*	*^	*
8r	8r	8gL	.
8r	8r	8bnJ	.
4r	4r	8ccL	.
.	.	8ddn	.
[8C [8G	[8e-	8ee-J	.
!!LO:LB:g=original
=45	=45	=45	=45
4.C] 4.G]	4.e-]	[4.cc	.
4.C 4.G	4.e-	8ccL]	.
.	.	8an	.
.	.	[8b-XJ	.
2.C 2.G-X	2.e-	8b-L]	.
.	.	8cc	.
.	.	8dd-XJ	.
.	.	8ffL	.
.	.	8ee-	.
.	.	8ffJ	.
=46	=46	=46	=46
4.C 4.F	4.e-	8a-XL	.
.	.	8an	.
.	.	[8ffJ	.
8BBnL	4r	8ffL]	.
8F	.	8a	.
8e-J	8r	8gg-XJ	.
8CL	4r	8ee-L	.
8F	.	8ff	.
8e-J	8r	8dd-J	.
4FF	4r	8ffL	.
.	.	8ee-	.
[8BB-X [8F	[8d-	8dd-J	.
=47	=47	=47	=47
4.BB-] 4.F]	4.d-]	[4.a-	.
4.BB- 4.F	4.d-	8a-L]	.
.	.	8g	.
.	.	[8a-J	.
2.BB- 2.F-X	2.d-	8a-L]	.
.	.	8b-	.
.	.	8ccJ	.
.	.	8ee-L	.
.	.	8dd-	.
.	.	8ee-J	.
!!LO:LB:g=original
=48	=48	=48	=48
4.BB- 4.E-	4.d-	8g-XL	.
.	.	8gn	.
.	.	[8ee-J	.
*	*v	*v	*
8AAnL	8ee-/L]	.
8E-	8g	.
8d-J	8ffnJ	.
8BB-L	8dd-L	.
8E-	8ee-	.
8d-J	8ggJ	.
4EE-	8fffL	.
.	8eee-	.
[8AAA- [8AA-X	8aa-J 8aaa-	.
=49	=49	=49
*	*^	*
4AAA-] 4AA-]	[4.ee- [4.eee-	2.ccc	f
[8c	.	.	.
*^	*	*	*
4.E- 4.c]	4.a-	8ee-L] 8eee-]	.	.
.	.	8ddn 8dddn	.	.
.	.	8ee-J 8eee-	.	.
4.d-X	8.an	8ffL 8fff	4.ddd-X	.
.	.	8gg-X 8ggg-X	.	.
.	8.b-	.	.	.
.	.	8ggnJ 8gggn	.	.
*	*	*v	*v	*
8r	8dd-XL	4bb- 4bbb-	.
8EnL 8d-	8g	.	.
[8FJ 8c	[8a-XJ	8aa- 8aaa-	.
=50	=50	=50	=50
4F] 4d-	4a-]	[4.dd- [4.ddd-	.
*v	*v	*	*
[8A-	.	.
4.C 4.A-] 4.d- 4.f	8dd-L] 8ddd-]	.
.	8a- 8aa-	.
.	8ccJ 8ccc	.
4.CC-X 4.C-X	8dd-L 8ddd-	.
.	8ff 8fff	.
.	8ggJ 8ggg	.
4.F 4.A- 4.d- 4.f	8aa-L 8aaa-	.
.	8gg 8ggg	.
.	8ffJ 8fff	.
!!LO:LB:g=original
=51	=51	=51
! rinforzando	!	!LO:DY:b=2
4.BBB- 4.BB-	[4.f [4.ff	sf
4.G 4.d- 4.g	8fL] 8ff]	.
.	8en 8een	.
.	8fJ 8ff	.
4r	8g-XL 8gg-X	.
.	8gn 8ggn	.
8r	[8dd-J [8ddd-	.
4r	8dd-L] 8ddd-]	.
.	8g 8gg	.
8r	8g-XJ 8gg-X	.
=52	=52	=52
*^	*	*
8r	8r	4.f 4.ff	.
8r	8r	.	.
8BBB-L	[8GGn	.	pp
8CC	4.GG_	4.F 4.B- 4.f	.
8DD-J	.	.	.
8BBB-L	.	.	.
8CC	4GG]	4.F 4.B- 4.f	.
8DD-J	.	.	.
8r	8r	.	.
4r	4r	4.f 4.ff	f
8r	8r	.	.
*v	*v	*	*
=53	=53	=53
! rinforzando	!	!LO:DY:b=2
4.BBBBn 4.BBBn/	[4.F< [4.f	sf
4.GG 4.D- 4.G	8F<L] 8f]	.
.	8En< 8en	.
.	8F<J 8f	.
4r	8G-X<L 8g-X	.
.	8Gn< 8gn	.
8r	[8d-<J [8dd-	.
4r	8d-<L] 8dd-]	.
.	8G< 8g	.
8r	8G-X<J 8g-X	.
!!LO:LB:g=original
=54	=54	=54
8r	4.F< 4.f	.
8r	.	.
8BBBnL	.	pp
8FF	[4.A-< [4.f	.
8D-J	.	.
8FFL	.	.
8F	4.A-<] 4.f]	.
8D-J	.	.
8A-L	.	.
8F	4A-< 4f	.
8FFJ	.	.
8CCL	8r	.
=55	=55	=55
8FF	4A-< 4f	.
8D-J	.	.
8FFL	8r	.
8F	4A-< 4c<	.
8CJ	.	.
8FFL	8r	.
8CC	4.D-< 4.F< 4.c<	.
8FFJ	.	.
8GGL	.	.
8AA-	4D-< 4F< 4Bn<	.
8FFJ	.	.
8CCL	8r	.
=56	=56	=56
8FF	4A-< 4f 4a-	.
8D-J	.	.
8FFL	8r	.
8F	4A-< 4f	.
8CJ	.	.
8CC\L	8r	.
8FF	4.G-X< 4.B-X< 4.f	>
8BB-J	.	)
8CL	.	)
8D-	4G-< 4B-< 4en	]
8BB-J	.	.
8CL	8r	.
!!LO:LB:g=original
=57	=57	=57
8E-	4c 4f 4cc	.
8AnJ	.	.
8A-XL	8r	.
8dn	4f 4bn 4ff	.
8A-J	.	.
8CL	8r	.
8D-X	4B- 4en 4b-X	.
8G-XJ	.	.
8FL	8r	.
8c	4f 4an 4ff	.
8FJ	.	.
8CL	8r	.
=58	=58	=58
8F	4A- 4f 4a-X	.
8cJ	.	.
8G-XL	8r	.
8d-	4B- 4g-X	.
8CJ	.	.
8GnL	8r	.
8A-	4.B- 4.en	.
8GJ	.	.
8CL	.	.
8D-	4A- 4f	.
8AA-J	.	.
8DD-L	8r	.
=59	=59	=59
8BB--	4d- 4f 4dd-	.
8FJ	.	.
8AA-L	8r	.
8F	4d- 4f 4a-	.
8d-J	.	.
8DD-L	8r	.
8BB--	4.B-- 4.d- 4.a-	.
8D-J	.	.
8E-L	.	.
8F-X	4B-- 4d- 4gn	.
8D-J	.	.
8DD-L	8r	.
!!LO:LB:g=original
=60	=60	=60
8BB--	4f 4dd- 4ff	.
8FJ	.	.
8AA-L	8r	.
8F	4f 4a- 4dd-	.
8d-J	.	.
8DD-L	8r	.
8BB--	4.e-- 4.g-X 4.dd-	.
8G-XJ	.	.
8A-L	.	.
8B--	4e-- 4g- 4cc	.
8G-J	.	.
8D-L	8r	.
=61	=61	=61
8F-X	4d- 4g-X 4dd-	.
8B-XJ	.	.
8AnL	8r	.
8e-X	4g- 4cc 4gg-X	.
8AJ	.	.
8D-L	8r	.
8E--	4c-X 4g- 4cc-X	.
8A-XJ	.	.
8A--L	8r	.
8d-	4fn 4cc- 4ffn	.
8A--J	.	.
8D-L	8r	.
=62	=62	=62
8G-X	4B- 4g-X 4b-	.
8d-J	.	.
8A-XL	8r	.
8d-	4Bn 4f 4bn	.
8D-J	.	.
*^	*	*
8CL	8ryy	8r	.
8D-	4.A-	4c 4f 4cc	.
8CJ	.	.	.
8D-L	.	8r	.
8C	4.Gn	4B-X 4en	.
8D-J	.	.	.
8C	.	8r	.
*v	*v	*	*
!!LO:LB:g=original
=63	=63	=63
4.FFF 4.FF	4.F 4.A- 4.f	sf
[4.A- [4.d- [4.a-	[4.cc [4.ff [4.ccc	sfz
8A-L] 8d-] 8a-]	8ccL] 8ff] 8ccc]	.
8G 8d- 8bn	8ff 8bbn 8fff	.
8D-J 8G 8f	8bnJ 8ff 8bb	.
4.C 4.A- 4.f	4cc 4ff 4ccc	.
.	8ff	.
=64	=64	=64
4.FFF 4.FF	4.F	sfz
[4.D- [4.A- [4.f	[4.a- [4.cc [4.aa-	.
8D-L] 8A-] 8f]	8a-L] 8cc] 8aa-\]	.
8D- 8G 8f	8g 8bn 8gg	.
8GGJ 8G	8BnJ 8f 8b	.
4AA- 4A-	8cL 8f 8cc	.
.	8fJ	.
8r	[8c [8f [8a-	.
=65	=65	=65
*	*	*^
! rinforzando	!	!	!LO:DY:a=2
4.DDDn 4.DDn	8c] 8f] 8a-]	.	sfz
.	8ccL	.	.
.	[8aa-J	.	.
8A- 8c 8f 8cc	8aa-L]	.	.
!	!	!	!LO:HP:b=2
16cLL	8gg	.	<
16en	.	.	(
16f	8ffJ	.	(
16gJJ	.	.	(
8a-	8r	.	[
*clefG2	*	*	*
8a-L 8aa-	16cccLL	.	<
.	16eeen	.	(
8enJ 8een	16fff	.	(
.	16gggJJ	.	(
8f 8ff	8aaa-	.	[
8r	16ccLL	.	<
.	16een	.	(
8r	16ff	.	(
.	16ggJJ	.	(
*clefF4	*	*	*
!!LO:LB:g=original
=66	=66	=66	=66
4GGG 4GG	16aa-LL	.	(
.	16cc	.	(
.	16ff	.	(
.	16cc	.	(
8Dn	16ccc	.	(
.	16ccJJ	.	(
4.A- 4.c 4.f 4.cc	16ffLL	.	(
.	16ccc	.	(
.	16ff	.	(
.	16ccc	.	(
.	16fff	.	(
.	16cccJJ	.	(
4r	16ccccLL	.	[ sfz
.	16ccc	.	>
.	16fff	.	)
.	16ff	.	)
8r	16aa-	.	)
.	16ccJJ	.	)
*^	*	*	*
!	!	!	!LO:HP:b=2	!
4.G	8e-XL	16ccLL	<	]
.	.	16a-	(	.
.	8dn	16bn	(	.
.	.	[16fJ	(	.
.	8a-J	8fJ] 8b 8ff	[	.
*	*	*	*v	*v
*v	*v	*	*
=67	=67	=67
4.CCC 4.CC	4.C<	.
[4.E- [4.A- [4.e-	[4.g [4.cc [4.gg	sfz
8E-L] 8A-] 8e-]	8gL] 8cc] 8gg]	.
8Dn 8A- 8f#X	8cc 8ff#X 8ccc	.
8AA-J 8D 8c	8f#XJ 8cc 8ff#	.
4.GG 4.E- 4.c	4g 4cc 4gg	.
.	8cc	.
=68	=68	=68
4.CCC 4.CC	4.C<	.
[4.AA- [4.E- [4.c	[4.e- [4.g [4.ee-	.
8AA-L] 8E-] 8c]	8e-L] 8g] 8ee-]	.
8AA- 8Dn 8c	8dn 8f#X 8ddn	.
8DDnJ 8D	8F#XJ 8c 8f#	.
4.EE- 4.E-	4G 4c 4g	.
.	8c	.
!!LO:LB:g=original
=69	=69	=69
8r	8r	.
8r	8r	.
*	*^	*
8DD-XL 8D-X	[8B- [8e-	[8g	p
8EE- 8E-	4B-] 4e-]	4.g_	.
8DD-J 8D-	.	.	.
8CCL 8C	[8A- [8e-	.	.
8EE- 8E-	4.A-] 4.e-]	16%3gL]	.
8CCJ 8C	.	.	.
.	.	16%3fnJ 16%3a-	.
8BBB-L 8BB-	.	.	.
8EE- 8E-	4.d-X 4.e-	16%3gL 16%3b-	.
8BBB-J 8BB-	.	.	.
.	.	16%3a-J 16%3cc	.
8AAA-L 8AA-	.	.	.
=70	=70	=70	=70
8EE- 8E-	4c	4e-	.
8AAA-J 8AA-	.	.	.
8CC-XL 8C-X	[8A- [8d-	[8f	.
8DD- 8D-	4A-] 4d-]	4.f_	.
8CC-J 8C-	.	.	.
8BBB-L 8BB-	[8G-X [8d-	.	.
8DD- 8D-	4.G-] 4.d-]	16%3fL]	.
8BBB-J 8BB-	.	.	.
.	.	16%3e-J 16%3g-X	.
8AAA-L 8AA-	.	.	.
8DD- 8D-	4.c-X 4.d-	16%3fL 16%3a-	.
8AAA-J 8AA-	.	.	.
.	.	16%3g-J 16%3b-	.
8GGG-XL 8GG-X	.	.	.
=71	=71	=71	=71
8DD- 8D-	4B-	4d-	.
8GGG-XJ 8GG-X	.	.	.
*	*v	*v	*
8GGG-L 8GG-	8r	.
8DD- 8D-	4En 4B- 4en	<
8CCnJ 8Cn	.	.
[8DD- [8D-	8r	.
8DD-L] 8D-]	4F 4B- 4f	.
8DDD-J 8DD-	.	.
8GGG-L 8GG-	8r	.
8DD- 8D-	4E 4B- 4e	.
8CCJ 8C	.	.
8FFF 8FF	8r	.
!!LO:LB:g=original
=72	=72	=72
8GG-XL 8G-X	4.B- 4.d-	>
8DD-J 8D-	.	]
8FFL 8F	.	.
8CCJ 8C	16%3AnL 16%3e-X 16%3f	.
8EE-L 8E-	.	.
.	16%3G-XJ 16%3d- 16%3g-X	.
8BBB-J 8BB-	.	.
*	*^	*
8DD-L 8D-	16%3fL	4.A-X 4.a-X	.
8AAA-J 8AA-	.	.	.
.	16%3e-J	.	.
8CCL 8C	.	.	.
8GGG-X 8GG-X	4ryy	4An 4e- 4an	.
8FFFJ 8FF	.	.	.
*^	*	*	*
! rinforzando	!	!	!	!LO:DY:b=2
8BBBB- 8BBB-	8BBB-L	8ryy	8r	sfz
*	*	*v	*v	*
=73	=73	=73	=73
4ryy	8CC 8C	4B- 4f 4b-	ff
.	8DD-J 8D-	.	.
! rinforzando	!	!	!LO:DY:b=2
8BBBB- 8BBB-	8BBB-L	8r	sfz
4ryy	8CC 8C	4F 4B- 4f	.
.	8DD-J 8D-	.	.
! rinforzando	!	!	!LO:DY:b=2
[8BBBB- [8BBB-	[8BBB-	8r	sf
8BBBB-] 8BBB-]	8BBB-L]	4.G-X 4.B- 4.f	.
!	!	!	!LO:HP:b=2
8ryy	8BBB-J 8BB-	.	<
4ryy	8CCL 8C	.	[
!	!	!	!LO:HP:b=2
.	8DD- 8D-	4G- 4B- 4en	>
8ryy	8BBB-J 8BB-	.	]
! rinforzando	!	!	!LO:DY:b=2
8BBBB- 8BBB-	8BBB-L	8r	sf
=74	=74	=74	=74
4ryy	8EEn 8En	4d- 4b- 4dd-	.
.	8FFJ 8F	.	.
! rinforzando	!	!	!LO:DY:b=2
8BBBB- 8BBB-	8BBB-L	8r	sf
4ryy	8EE 8E	4d- 4b-	.
.	8FFJ 8F	.	.
! rinforzando	!	!	!LO:DY:b=2
[8BBBB- [8BBB-	[8BBB-	8r	sf
8BBBB-] 8BBB-]	8BBB-L]	4.c-X 4.e-X 4.b-	.
8ryy	8EEnJ 8En	.	.
*v	*v	*	*
!	!	!LO:HP:b=2
8FFL 8F	.	<
8GG-X 8G-X	4c- 4e- 4an	[
!	!	!LO:HP:b=2
8EE-XJ 8E-X	.	>
8BBB-L 8BB-	8r	]
!!LO:LB:g=original
=75	=75	=75
8AA-X 8A-X	4f 4b- 4ff	.
8DnJ 8dn	.	.
8GGL 8G	8r	.
8D 8d	4b- 4een 4bb-	.
8D-XJ 8d-X	.	.
8GG-XL 8G-X	8r	.
8D- 8d-	4en 4b- 4ee	.
8CJ 8c	.	.
8D-L 8d-	8r	.
8FF 8F	4f 4b- 4ff	.
8BBB-J 8BB-	.	.
! rinforzando	!	!LO:DY:b=2
8BBBB-L 8BBB-	8r	sfz
=76	=76	=76
8EEn 8En	4d- 4b- 4dd-	ff
8FFJ 8F	.	.
! rinforzando	!	!LO:DY:b=2
8CCC-X 8CC-X	8r	sff
4.AA- 4.A-	8r	.
.	16fLL	<
.	16a-	(
.	16dd-	(
.	16a-JJ	(
4.F 4.d- 4.f	16aa-LL	(
.	16a-	(
.	16dd-	(
.	16aa-	(
.	16dd-	(
.	16aa-JJ	(
4d- 4a- 4dd-	16ddd-LL	(
.	16ddd-J	[
*	*8va	*
.	8dddd-J	.
*	*X8va	*
! rinforzando	!	!LO:DY:b=2
8BBBB-L 8BBB-	8r	sfz
!!LO:LB:g=original
=77	=77	=77
8EEn 8En	4d- 4b- 4dd-	.
8FFJ 8F	.	.
! rinforzando	!	!LO:DY:b=2
8BBBBn 8BBBn	8r	sff
4.AA- 4.A-	8r	.
.	16fLL	<
.	16a-	(
.	16dd-	(
.	16a-JJ	(
*	*8va	*
4F 4d- 4f	16aa-LL	(
.	16ddd-J	(
.	8dddd-J	[
*	*X8va	*
[8BBB-X\	8r	.
4BBB-] 4FF	4D-< 4B-< 4d-	p
[8CC-X\	8r	.
=78	=78	=78
!	!	!LO:HP:a=1
4CC-] 4FF	4D-< 4A-< 4d-	<
[8BBB-\	8r	.
4BBB-] 4FF	4D-< 4B-< 4d-	.
[8CC-X\	8r	.
4CC-] 4FF	4D-< 4A-< 4d-	.
[8BBB-\	8r	.
4BBB-] 4FF	4D-< 4B-< 4d-	.
8BBBn\	8r	.
=79	=79	=79
8.BBBnL 8.FF	8.D-<L 8.A-< 8.d-	.
8.BBBJ 8.FF	8.D-<J 8.A-< 8.d-	.
8.BBBL 8.FF	8.D-<L 8.A-< 8.d-	.
8.BBBJ 8.FF	8.D-<J 8.A-< 8.d-	.
8.BBBL 8.FF	8.D-<L 8.A-< 8.d-	.
!	!	!LO:HP:a=1
8.BBBJ 8.FF	8.D-<J 8.A-< 8.d-	<
8.BBBL 8.FF	8.D-<L 8.A-< 8.d-	.
8.BBBJ 8.FF	8.D-<J 8.A-< 8.d-	.
!!LO:LB:g=original
=80	=80	=80
8BBBnL 8GG	8F<L 8G< 8d- 8f	fff
8BBB 8GG	8F< 8G< 8d- 8f	.
8BBBJ 8GG	8F<J 8G< 8d- 8f	.
8BBBL 8GG	8F<L 8G< 8d- 8f	.
8BBB 8GG	8F< 8G< 8d- 8f	.
8BBBJ 8GG	8F<J 8G< 8d- 8f	.
8BBBL 8GG	8F<L 8G< 8d- 8f	.
8BBB 8GG	8F< 8G< 8d- 8f	.
8BBBJ 8GG	8F<J 8G< 8d- 8f	.
8BBBL 8GG	8F<L 8G< 8d- 8f	.
8BBB 8GG	8F< 8G< 8d- 8f	.
8BBBJ 8GG	8F<J 8G< 8d- 8f	.
=81	=81	=81
*^	*	*
4.BBBBn 4.BBBn	8ryy	8GG<	sfff
.	8r	8r	.
.	8r	8r	.
*v	*v	*	*
8GG 8F 8d-	8f 8g 8dd- 8ff	.
8r	8r	.
8r	8r	.
4r	4r	.
8r	8r	.
4r	4r	.
*	*^	*
[8C [8A-	[8f	8ff	pp
*	*v	*v	*
=82	=82	=82
*M9/8	*M9/8	*
*	*^	*
2.C_ 2.A-_	2.f_	[4.cc	.
.	.	8ccL]	.
.	.	8bn	.
.	.	8ccJ	.
4.C_ 4.A-_	4.f]	4ee-	.
.	.	8dd-	.
!!LO:LB:g=original
=83	=83	=83	=83
4.C] 4.A-]	4.f	8fL	.
.	.	8g	.
.	.	8a-J	.
*	*v	*v	*
4r	4r	.
8r	8r	.
4r	4r	.
*	*^	*
[8qCC	.	.	.
8CC_ [8AA- [8D- [8A-	[8d- [8f	8dd-	.
=84	=84	=84	=84
2.CC_ 2.AA-_ 2.D-_ 2.A-_	2.d-] 2.f]	[4.a-	.
.	.	8a-L]	.
.	.	8g	.
.	.	8a-J	.
4.CC] 4.AA-] 4.D-] 4.A-]	4r	4b-	.
.	8r	8a-	.
*	*v	*v	*
=85	=85	=85
4r	8d-L	.
.	8e-	.
8r	8fJ	.
8CC 8GG-X 8D-	8G-X 8B- 8d- 8g-X	.
8r	8r	.
8r	8r	.
4r	4r	.
8r	8r	.
=86	=86	=86
8CC 8GGn 8C	8En 8B- 8en	.
8r	8r	.
8r	8r	.
4r	4r	.
8r	8r	.
4r	4r	.
8r	8r	.
!! attacca
=||	=||	=||
*-	*-	*-
!!!system-decoration: {(*)}
!!!filter: flipper -a
!!!RDF**kern: > = above
!!!RDF**kern: < = below
!!!RDF**dynam: > = dim.
!!!ENC: Bryan Jacob Bell
!!!END: November 2021 to April 2022
!!!PED: Günter Philipp
!!!PTL: Ausgewählte Klavierwerke (Edition Peters)
!!!URL-pdf: https://github.com/bel28kent/Mysterium/blob/main/reference_editions/op06.pdf
